elementary-icon-theme/elementary/panel/22/audio-output-none-panel.svg

<?xml version="1.0" encoding="UTF-8" standalone="no"?>
<!-- Created with Inkscape (http://www.inkscape.org/) -->

<svg
   xmlns:dc="http://purl.org/dc/elements/1.1/"
   xmlns:cc="http://creativecommons.org/ns#"
   xmlns:rdf="http://www.w3.org/1999/02/22-rdf-syntax-ns#"
   xmlns:svg="http://www.w3.org/2000/svg"
   xmlns="http://www.w3.org/2000/svg"
   xmlns:xlink="http://www.w3.org/1999/xlink"
   xmlns:sodipodi="http://sodipodi.sourceforge.net/DTD/sodipodi-0.dtd"
   xmlns:inkscape="http://www.inkscape.org/namespaces/inkscape"
   version="1.0"
   width="22"
   height="22"
   id="svg4431"
   sodipodi:version="0.32"
   inkscape:version="0.48.0 r9654"
   sodipodi:docname="audio-output-none-panel.svg"
   inkscape:output_extension="org.inkscape.output.svg.inkscape">
  <metadata
     id="metadata16">
    <rdf:RDF>
      <cc:Work
         rdf:about="">
        <dc:format>image/svg+xml</dc:format>
        <dc:type
           rdf:resource="http://purl.org/dc/dcmitype/StillImage" />
      </cc:Work>
    </rdf:RDF>
  </metadata>
  <sodipodi:namedview
     inkscape:window-height="713"
     inkscape:window-width="816"
     inkscape:pageshadow="2"
     inkscape:pageopacity="0.0"
     guidetolerance="10.0"
     gridtolerance="10.0"
     objecttolerance="10.0"
     borderopacity="1.0"
     bordercolor="#666666"
     pagecolor="#ffffff"
     id="base"
     showgrid="false"
     inkscape:zoom="10.375"
     inkscape:cx="-4.7710843"
     inkscape:cy="14.024096"
     inkscape:window-x="399"
     inkscape:window-y="51"
     inkscape:current-layer="svg4431"
     inkscape:window-maximized="0" />
  <defs
     id="defs4433">
    <linearGradient
       id="linearGradient3587-6-5">
      <stop
         id="stop3589-9-2"
         style="stop-color:#000000;stop-opacity:1"
         offset="0" />
      <stop
         id="stop3591-7-4"
         style="stop-color:#363636;stop-opacity:1"
         offset="1" />
    </linearGradient>
    <linearGradient
       x1="9"
       y1="3"
       x2="9"
       y2="21"
       id="linearGradient2393"
       xlink:href="#linearGradient3587-6-5"
       gradientUnits="userSpaceOnUse"
       gradientTransform="translate(-1,0)" />
  </defs>
  <g
     id="g3272"
     style="opacity:0.4"
     transform="translate(-1,-1)">
    <path
       d="m 3,11 0,5 2,0 4,4 0,-13 -4,4 -2,0 z m 8,2 c 0.666667,0 1.333333,0 2,0 0,0.333333 0,0.666667 0,1 -0.666667,0 -1.333333,0 -2,0 0,-0.333333 0,-0.666667 0,-1 z m 8,0 c 0.666667,0 1.333333,0 2,0 0,0.333333 0,0.666667 0,1 -0.666667,0 -1.333333,0 -2,0 0,-0.333333 0,-0.666667 0,-1 z m -4,0 c 0.666667,0 1.333333,0 2,0 0,0.333333 0,0.666667 0,1 -0.666667,0 -1.333333,0 -2,0 0,-0.333333 0,-0.666667 0,-1 z"
       id="path2387-4"
       style="opacity:0.6;fill:#ffffff;fill-opacity:1;fill-rule:evenodd;stroke:none"
       inkscape:connector-curvature="0" />
    <path
       d="m 3,10 0,5 2,0 4,4 0,-13 -4,4 -2,0 z m 8,2 c 0.666667,0 1.333333,0 2,0 0,0.333333 0,0.666667 0,1 -0.666667,0 -1.333333,0 -2,0 0,-0.333333 0,-0.666667 0,-1 z m 8,0 c 0.666667,0 1.333333,0 2,0 0,0.333333 0,0.666667 0,1 -0.666667,0 -1.333333,0 -2,0 0,-0.333333 0,-0.666667 0,-1 z m -4,0 c 0.666667,0 1.333333,0 2,0 0,0.333333 0,0.666667 0,1 -0.666667,0 -1.333333,0 -2,0 0,-0.333333 0,-0.666667 0,-1 z"
       id="path2387"
       style="opacity:0.8;fill:url(#linearGradient2393);fill-opacity:1;fill-rule:evenodd;stroke:none"
       inkscape:connector-curvature="0" />
  </g>
</svg>

<?xml version="1.0" encoding="UTF-8" standalone="no"?>
<!-- Created with Inkscape (http://www.inkscape.org/) -->
<svg
   xmlns:dc="http://purl.org/dc/elements/1.1/"
   xmlns:cc="http://creativecommons.org/ns#"
   xmlns:rdf="http://www.w3.org/1999/02/22-rdf-syntax-ns#"
   xmlns:svg="http://www.w3.org/2000/svg"
   xmlns="http://www.w3.org/2000/svg"
   xmlns:xlink="http://www.w3.org/1999/xlink"
   xmlns:sodipodi="http://sodipodi.sourceforge.net/DTD/sodipodi-0.dtd"
   xmlns:inkscape="http://www.inkscape.org/namespaces/inkscape"
   version="1.0"
   width="22"
   height="22"
   id="svg4431"
   sodipodi:version="0.32"
   inkscape:version="0.46"
   sodipodi:docname="audio-volume-muted.svg"
   inkscape:output_extension="org.inkscape.output.svg.inkscape">
  <metadata
     id="metadata16">
    <rdf:RDF>
      <cc:Work
         rdf:about="">
        <dc:format>image/svg+xml</dc:format>
        <dc:type
           rdf:resource="http://purl.org/dc/dcmitype/StillImage" />
      </cc:Work>
    </rdf:RDF>
  </metadata>
  <sodipodi:namedview
     inkscape:window-height="706"
     inkscape:window-width="640"
     inkscape:pageshadow="2"
     inkscape:pageopacity="0.0"
     guidetolerance="10.0"
     gridtolerance="10.0"
     objecttolerance="10.0"
     borderopacity="1.0"
     bordercolor="#666666"
     pagecolor="#ffffff"
     id="base"
     showgrid="false"
     inkscape:zoom="10.375"
     inkscape:cx="12"
     inkscape:cy="12"
     inkscape:window-x="399"
     inkscape:window-y="51"
     inkscape:current-layer="svg4431" />
  <defs
     id="defs4433">
    <inkscape:perspective
       sodipodi:type="inkscape:persp3d"
       inkscape:vp_x="0 : 12 : 1"
       inkscape:vp_y="0 : 1000 : 0"
       inkscape:vp_z="24 : 12 : 1"
       inkscape:persp3d-origin="12 : 8 : 1"
       id="perspective18" />
    <linearGradient
       id="linearGradient3169">
      <stop
         id="stop3171"
         style="stop-color:#000000;stop-opacity:1"
         offset="0" />
      <stop
         id="stop3173"
         style="stop-color:#000000;stop-opacity:0"
         offset="1" />
    </linearGradient>
    <linearGradient
       id="linearGradient3587-6-5">
      <stop
         id="stop3589-9-2"
         style="stop-color:#000000;stop-opacity:1"
         offset="0" />
      <stop
         id="stop3591-7-4"
         style="stop-color:#363636;stop-opacity:1"
         offset="1" />
    </linearGradient>
    <linearGradient
       x1="9"
       y1="3"
       x2="9"
       y2="21"
       id="linearGradient2393"
       xlink:href="#linearGradient3587-6-5"
       gradientUnits="userSpaceOnUse"
       gradientTransform="translate(-1,0)" />
    <linearGradient
       x1="6.333241"
       y1="6.4499998"
       x2="6.333241"
       y2="18.707039"
       id="linearGradient3175"
       xlink:href="#linearGradient3169"
       gradientUnits="userSpaceOnUse" />
  </defs>
  <g
     id="g3272"
     style="opacity:0.4"
     transform="translate(-1,-1)">
    <path
       d="M 3,11 L 3,16 L 5,16 L 9,20 L 9,7 L 5,11 L 3,11 z M 11,13 C 11.666667,13 12.333333,13 13,13 C 13,13.333333 13,13.666667 13,14 C 12.333333,14 11.666667,14 11,14 C 11,13.666667 11,13.333333 11,13 z M 19,13 C 19.666667,13 20.333333,13 21,13 C 21,13.333333 21,13.666667 21,14 C 20.333333,14 19.666667,14 19,14 C 19,13.666667 19,13.333333 19,13 z M 15,13 C 15.666667,13 16.333333,13 17,13 C 17,13.333333 17,13.666667 17,14 C 16.333333,14 15.666667,14 15,14 C 15,13.666667 15,13.333333 15,13 z"
       id="path2387-4"
       style="opacity:0.6;fill:#ffffff;fill-opacity:1;fill-rule:evenodd;stroke:none" />
    <path
       d="M 3,10 L 3,15 L 5,15 L 9,19 L 9,6 L 5,10 L 3,10 z M 11,12 C 11.666667,12 12.333333,12 13,12 C 13,12.333333 13,12.666667 13,13 C 12.333333,13 11.666667,13 11,13 C 11,12.666667 11,12.333333 11,12 z M 19,12 C 19.666667,12 20.333333,12 21,12 C 21,12.333333 21,12.666667 21,13 C 20.333333,13 19.666667,13 19,13 C 19,12.666667 19,12.333333 19,12 z M 15,12 C 15.666667,12 16.333333,12 17,12 C 17,12.333333 17,12.666667 17,13 C 16.333333,13 15.666667,13 15,13 C 15,12.666667 15,12.333333 15,12 z"
       id="path2387"
       style="opacity:0.8;fill:url(#linearGradient2393);fill-opacity:1;fill-rule:evenodd;stroke:none" />
  </g>
</svg>
